X:1
T:[ID 2-24]
T:[ID 2-24]
T:Bezeichnung standardisiert: Menuett Menuet
T:Urheber unbekannt Datum in der hier transkribierten schriftlichen Quelle: 1767
C:Urheber unbekannt
C:Datum in der hier transkribierten schriftlichen Quelle: 1767
L:1/8
M:3/4
K:F
V:1 treble 
V:1
 c4 (3def | d2 c4 | c2 f2 af | c2 B2 A2 | G2 b2 g2 | efge f2 | (dc)(cB)(BA) | A2 G4 :: G3 BAc | %9
 B2 A2 z2 | (3AGA (3BAB (3cBc | d2 c2 z2 | c2 b2 g2 | efgefc | (3dcB A2 BG | G4 F2 :| %16

